% Martin Bruchanov, bruxy at regnet dot cz

labeloffset := 1.5mm;   % vzdalenost labelu od bodu

% nastaveni hlavniho fontu
defaultfont := "csr10";
% defaultscale := 12pt/fontsize defaultfont;

verbatimtex
	\font\hlavni=csr10
	\hlavni
etex;

%outputformat := "svg";

%%%%%%%%%%%%%%%%%%%%%%%%%%%%%%%%%%%%%%%%%%%%%%%%%%%%%%%%%%%%%%%%%%%%%%%%%%%%%%%

beginfig(1);

endfig;
end;
